X:1
T:Der Tag Bricht An, LM
T:Der Tag Bricht An, LM
T:Melody probably by Melchior Vulpius (1560-1616)
T:Public Domain Courtesy of the Cyber Hymnal™
C:Melody probably by Melchior Vulpius (1560-1616)
Z:Public Domain
Z:Courtesy of the Cyber Hymnal™
%%score ( 1 2 ) ( 3 4 )
L:1/8
Q:1/4=115
M:4/4
K:G
V:1 treble 
V:2 treble 
V:3 bass 
V:4 bass 
V:1
 E4 [B,B]2 [FB]2 | [Ec]4 B4 | (A2 E2) ([EG]2 [^DF]2) | E6 [CE]2 | [B,G]2 E2 [FB]2 [E^c]2 | %5
 ([Dd]2 [FB]2) (d2 ^c2) x2 | [^DB]6 [GB]2 | [FB]2 [E^A]2 [^DB]2 [=DF]2 | A4 [EG]4 | F6 [GB]2 | %10
 [GB]2 A2 [DG]2 E2 | G4 z2 x4 | !fermata!E8 |] %13
V:2
 (G,2 A,2) x4 | x4 (G2 F2) | E4 x4 | E6 x2 | x2 E2 x4 | x4 F4 x2 | x8 | x8 | (E2 ^D2) x4 | F6 x2 | %10
 x2 (FE) x E2 x | (^C2 E2) (F4 ^D2) | E8 |] %13
V:3
 (E,2 F,2) [E,G,]2 [D,B,]2 | (G,2 A,2) [G,,B,]4 | ([A,,C]2 [C,A,]2) [B,,B,]4 | [E,G,]6 [A,,A,]2 | %4
 [E,G,]2 [E,G,]2 [D,F,]2 [^C,^A,]2 | B,6 z2 ^A,2 | [B,,B,]6 [E,B,]2 | %7
 [D,B,]2 [^C,E,]2 [B,,F,]2 [B,,B,]2 | [A,,C]4 (B,2 ^C2) | [B,,^D]6 [G,,=D]2 | %10
 [G,,D]2 [A,,C]2 [B,,D]2 [G,,B,]2 | [A,,^C]4 [B,,F,]4 x2 | !fermata![E,G,]8 |] %13
V:4
 E,4 x4 | C,4 x4 | x8 | x8 | x8 | (B,,2 D,2) F,4 x2 | x8 | x8 | x4 E,4 | x8 | x8 | x10 | x8 |] %13

